X: 17044
T: Heather Breeze, The
R: reel
M: 4/4
K: Gmajor
|:DGBG dBGB|FGAB cBAF|DGBG dBGB|1 BdcA BGAF:|2 BdcA BGG2||
dggf gbag|fd3 fagf|dggf gbag|fdcA BGG2|
dggf gbag|fd3 fagf|g3a bgag|fdcA BGAF||

